icon-themes/sifr_svg/cmd/sc_nextrecord.svg

<svg viewBox="0 0 16 16" xmlns="http://www.w3.org/2000/svg"><path d="m8 2c.30945 0 .55232.0903.75.28125l5.25 4.8046875v1.7832031c-1.645942 1.4864004-4.0908837 3.9716834-5.25 4.8496094-.19768.19095-.44055.28125-.75.28125h-.5859375-.4140625v-1c0 .25689.12983-.52846.3125-.71875l4.6875-4.28125-4.6875-4.28125c-.18267-.19029-.3125-.46186-.3125-.71875v-1h.4140625zm-1 5c.552285 0 1 .4477153 1 1s-.447715 1-1 1-1-.4477153-1-1 .447715-1 1-1zm-4 0a1 1 0 0 1 1 1 1 1 0 0 1 -1 1 1 1 0 0 1 -1-1 1 1 0 0 1 1-1z" fill="#555753"/></svg>

<svg xmlns="http://www.w3.org/2000/svg" viewBox="0 0 16 16">
  <path
     style="fill:#555753"
     d="M 8,2 C 8.30945,2 8.55232,2.0903 8.75,2.28125 L 14,7.0859375 V 8.8691406 C 12.354058,10.355541 9.9091163,12.840824 8.75,13.71875 8.55232,13.9097 8.30945,14 8,14 H 7.4140625 7 v -1 c 0,0.25689 0.12983,-0.52846 0.3125,-0.71875 L 12,8 7.3125,3.71875 C 7.12983,3.52846 7,3.25689 7,3 V 2 H 7.4140625 Z M 7,7 C 7.552285,7 8,7.4477153 8,8 8,8.5522847 7.552285,9 7,9 6.447715,9 6,8.5522847 6,8 6,7.4477153 6.447715,7 7,7 Z M 3,7 A 1,1 0 0 1 4,8 1,1 0 0 1 3,9 1,1 0 0 1 2,8 1,1 0 0 1 3,7 Z"
     />
</svg>
